X:1
T:Ite amari sospiri
T:Ite amari sospiri
T:Claudio Saracini
T:Source : Le seconde Musische per cantar e sonar---Venetia---A.Vincenti---1620. Editor : André Vierendeels (25/11/15).
T:Notes : Original clefs : C1, C4 Editorial accidentals above the staff Figures above the BC are notated in original print Text by Giovanni Battista Guarini Dedicated to his other brother Cello ("fratello carissimo")  
C:Claudio Saracini
%%score 1 2
L:1/8
Q:1/4=85
M:4/4
K:C
V:1 treble nm="Soprano" snm="S"
V:2 bass nm="BC" snm="BC"
V:1
 B4 BBBB | B4 B4 | z dc B3 AG | ^F8 | z ed c3 BA | ^G3 E G2 A2 | B8 | A8 :: z2 A2 c4- | c4 c4 | %10
w: I- te'a- ma- ri so-|spi- ri,|al- la bel- la ca-|gion,|al- la bel- la ca-|gion del mo- rir|mi-|o.|E di-|* te|
 f4 BBBB | B6 B2 | E8 | E8 | c4 GGGG | ^G2 G3 BBB | B4 B2 cc | c4 ^c3 c | d8 | d8 | z2 BB B4 | %21
w: O trop- po di pie-|ta- te'i-|gnu-|da,|s'a- ve- te pur de-|si- o di lu- ga-|men- te con- ser-|var- * vi|cru-|da,|al- len- ta-|
 _B6 GG | G8 | G8 | z2 ^cc c4 |"^-natural" c6 AA | A8 | A8 | z FED ^C4- | C4 DEFG | E8 | D8 | %32
w: * te'il ri-|go-|re,|al- len- ta-|* te'il ri-|go-|re,|che quel me- schin|_ si _ _ _|mo-|re:|
 z AAA A4 | B4 c4 | d4 e4 | z c A4 B2 | ^G8 | z ^ccc c3 B | B3 A A2 z d | TA8 | G8 :| %41
w: E da- ra ro-|sto fin|col suo|mo- ri- *|re|al- la du- rez- za|vo- str'al suo lan-|gui-|re.|
V:2
 G,,8- | G,,8 | G,,4 D,4- | D,4 D,,4 | C,4 D,4 | E,8- | E,8 | A,,8 :: F,,8- | F,,8 | F,,2 G,,6 | %11
 G,,4 ^F,,4 | A,,8 | A,,8 | C,8 | E,4 G,,4 | G,,4 C,4- |"^#" C,2 B,,2 A,,4 | ^F,,8- | F,,8 | %20
"^-natural" G,,8 |"^b" G,,8 | G,,8- | G,,8 |"^#" A,,8 |"^-natural" A,,8 | A,,8 | A,,8 | %28
 C,2 C,B,, A,,4- | A,,8- | A,,8 | D,8 | D,6 B,,2- | B,,4 A,,4 | ^F,,4 ^C,4 |"^#" F,4 E,4- | %36
 E,4 D,4 | ^C,6 ^G,2- | G,2 ^C,2 D,4 | D,,8 | G,,8 :| %41

